images/portal/4331.svg

<?xml version="1.0" standalone="no"?><!DOCTYPE svg PUBLIC "-//W3C//DTD SVG 1.1//EN" "http://www.w3.org/Graphics/SVG/1.1/DTD/svg11.dtd"><svg xmlns:xlink="http://www.w3.org/1999/xlink" version="1.1" class="highcharts-root" style="font-family:arial;font-size:9pt;" xmlns="http://www.w3.org/2000/svg" width="485" height="415"><desc>Created with Highstock 5.0.14</desc><defs><clipPath id="highcharts-hzwp5gc-7"><rect x="0" y="0" width="428" height="254" fill="none"></rect></clipPath><clipPath id="highcharts-hzwp5gc-8"><rect x="0" y="0" width="428" height="254" fill="none"></rect></clipPath></defs><rect fill="#fbfbfb" class="highcharts-background" x="0" y="0" width="485" height="415" rx="0" ry="0"></rect><rect fill="none" class="highcharts-plot-background" x="47" y="90" width="428" height="254"></rect><g class="highcharts-label" style="cursor:pointer;" transform="translate(10,451)"><text x="0" y="0"><tspan>&gt; Indikator-Details</tspan></text></g><g class="highcharts-pane-group"></g><g class="highcharts-grid highcharts-xaxis-grid "><path fill="none" class="highcharts-grid-line" d="M 79.5 90 L 79.5 344" opacity="1"></path><path fill="none" class="highcharts-grid-line" d="M 112.5 90 L 112.5 344" opacity="1"></path><path fill="none" class="highcharts-grid-line" d="M 145.5 90 L 145.5 344" opacity="1"></path><path fill="none" class="highcharts-grid-line" d="M 178.5 90 L 178.5 344" opacity="1"></path><path fill="none" class="highcharts-grid-line" d="M 211.5 90 L 211.5 344" opacity="1"></path><path fill="none" class="highcharts-grid-line" d="M 244.5 90 L 244.5 344" opacity="1"></path><path fill="none" class="highcharts-grid-line" d="M 276.5 90 L 276.5 344" opacity="1"></path><path fill="none" class="highcharts-grid-line" d="M 309.5 90 L 309.5 344" opacity="1"></path><path fill="none" class="highcharts-grid-line" d="M 342.5 90 L 342.5 344" opacity="1"></path><path fill="none" class="highcharts-grid-line" d="M 375.5 90 L 375.5 344" opacity="1"></path><path fill="none" class="highcharts-grid-line" d="M 408.5 90 L 408.5 344" opacity="1"></path><path fill="none" class="highcharts-grid-line" d="M 441.5 90 L 441.5 344" opacity="1"></path><path fill="none" class="highcharts-grid-line" d="M 474.5 90 L 474.5 344" opacity="1"></path><path fill="none" class="highcharts-grid-line" d="M 46.5 90 L 46.5 344" opacity="1"></path></g><g class="highcharts-grid highcharts-yaxis-grid "><path fill="none" stroke="#e6e6e6" stroke-width="1" class="highcharts-grid-line" d="M 47 344.5 L 475 344.5" opacity="1"></path><path fill="none" stroke="#e6e6e6" stroke-width="1" class="highcharts-grid-line" d="M 47 293.5 L 475 293.5" opacity="1"></path><path fill="none" stroke="#e6e6e6" stroke-width="1" class="highcharts-grid-line" d="M 47 242.5 L 475 242.5" opacity="1"></path><path fill="none" stroke="#e6e6e6" stroke-width="1" class="highcharts-grid-line" d="M 47 192.5 L 475 192.5" opacity="1"></path><path fill="none" stroke="#e6e6e6" stroke-width="1" class="highcharts-grid-line" d="M 47 141.5 L 475 141.5" opacity="1"></path><path fill="none" stroke="#e6e6e6" stroke-width="1" class="highcharts-grid-line" d="M 47 89.5 L 475 89.5" opacity="1"></path></g><g class="highcharts-grid highcharts-yaxis-grid "></g><rect fill="none" class="highcharts-plot-border" x="47" y="90" width="428" height="254"></rect><g class="highcharts-axis highcharts-xaxis "><path fill="none" class="highcharts-axis-line" stroke="#ccd6eb" stroke-width="1" d="M 47 344.5 L 475 344.5"></path></g><g class="highcharts-axis highcharts-yaxis "><path fill="none" class="highcharts-axis-line" d="M 47 90 L 47 344"></path></g><g class="highcharts-axis highcharts-yaxis "><path fill="none" class="highcharts-axis-line" d="M 475 90 L 475 344"></path></g><g class="highcharts-series-group"><g class="highcharts-series highcharts-series-0 highcharts-column-series highcharts-color-undefined " transform="translate(47,90) scale(1 1)" clip-path="url(#highcharts-hzwp5gc-8)"><rect x="9" y="49" width="16" height="206" fill="#FF8028" class="highcharts-point"></rect><rect x="41" y="48" width="16" height="207" fill="#FF8028" class="highcharts-point"></rect><rect x="74" y="41" width="16" height="214" fill="#FF8028" class="highcharts-point"></rect><rect x="107" y="39" width="16" height="216" fill="#FF8028" class="highcharts-point"></rect><rect x="140" y="39" width="16" height="216" fill="#FF8028" class="highcharts-point"></rect><rect x="173" y="25" width="16" height="230" fill="#FF8028" class="highcharts-point"></rect><rect x="206" y="42" width="16" height="213" fill="#FF8028" class="highcharts-point"></rect><rect x="239" y="37" width="16" height="218" fill="#FF8028" class="highcharts-point"></rect><rect x="272" y="32" width="16" height="223" fill="#FF8028" class="highcharts-point"></rect><rect x="305" y="28" width="16" height="227" fill="#FF8028" class="highcharts-point"></rect><rect x="338" y="31" width="16" height="224" fill="#FF8028" class="highcharts-point"></rect><rect x="371" y="34" width="16" height="221" fill="#FF8028" class="highcharts-point"></rect><rect x="404" y="31" width="16" height="224" fill="#FF8028" class="highcharts-point"></rect></g><g class="highcharts-markers highcharts-series-0 highcharts-column-series highcharts-color-undefined " transform="translate(47,90) scale(1 1)" clip-path="none"></g></g><text x="10" text-anchor="start" class="highcharts-title" style="color:#000000;font-size:1.1em;font-weight:bold;fill:#000000;" y="20"><tspan>Recyclingquote</tspan></text><text x="10" text-anchor="start" class="highcharts-subtitle" style="color:#000000;font-size:0.9em;fill:#000000;" y="38"><tspan>Prozent</tspan></text><g class="highcharts-legend" transform="translate(10,40)"><rect fill="none" class="highcharts-legend-box" rx="0" ry="0" x="0" y="0" width="148" height="38" visibility="visible"></rect><g><g><g class="highcharts-legend-item highcharts-column-series highcharts-color-undefined highcharts-series-0" transform="translate(12,7)"><text x="21" style="color:#333333;font-size:1em;font-weight:normal;cursor:pointer;fill:#333333;" text-anchor="start" y="15"><tspan>Kanton Basel-Stadt</tspan></text><rect x="2" y="4" width="12" height="12" fill="#FF8028" class="highcharts-point"></rect></g></g></g></g><g class="highcharts-axis-labels highcharts-xaxis-labels "><text x="63.46153846153846" style="color:#000000;cursor:default;font-size:0.9em;fill:#000000;" text-anchor="middle" transform="translate(0,0)" y="363" opacity="1">2003</text><text x="96.38461538461539" style="color:#000000;cursor:default;font-size:0.9em;fill:#000000;" text-anchor="middle" transform="translate(0,0)" y="363" opacity="1">2004</text><text x="129.3076923076923" style="color:#000000;cursor:default;font-size:0.9em;fill:#000000;" text-anchor="middle" transform="translate(0,0)" y="363" opacity="1">2005</text><text x="162.23076923076923" style="color:#000000;cursor:default;font-size:0.9em;fill:#000000;" text-anchor="middle" transform="translate(0,0)" y="363" opacity="1">2006</text><text x="195.15384615384613" style="color:#000000;cursor:default;font-size:0.9em;fill:#000000;" text-anchor="middle" transform="translate(0,0)" y="363" opacity="1">2007</text><text x="228.07692307692307" style="color:#000000;cursor:default;font-size:0.9em;fill:#000000;" text-anchor="middle" transform="translate(0,0)" y="363" opacity="1">2008</text><text x="261" style="color:#000000;cursor:default;font-size:0.9em;fill:#000000;" text-anchor="middle" transform="translate(0,0)" y="363" opacity="1">2009</text><text x="293.9230769230769" style="color:#000000;cursor:default;font-size:0.9em;fill:#000000;" text-anchor="middle" transform="translate(0,0)" y="363" opacity="1">2010</text><text x="326.8461538461538" style="color:#000000;cursor:default;font-size:0.9em;fill:#000000;" text-anchor="middle" transform="translate(0,0)" y="363" opacity="1">2011</text><text x="359.7692307692307" style="color:#000000;cursor:default;font-size:0.9em;fill:#000000;" text-anchor="middle" transform="translate(0,0)" y="363" opacity="1">2012</text><text x="392.6923076923077" style="color:#000000;cursor:default;font-size:0.9em;fill:#000000;" text-anchor="middle" transform="translate(0,0)" y="363" opacity="1">2013</text><text x="425.6153846153846" style="color:#000000;cursor:default;font-size:0.9em;fill:#000000;" text-anchor="middle" transform="translate(0,0)" y="363" opacity="1">2014</text><text x="458.5384615384615" style="color:#000000;cursor:default;font-size:0.9em;fill:#000000;" text-anchor="middle" transform="translate(0,0)" y="363" opacity="1">2015</text></g><g class="highcharts-axis-labels highcharts-yaxis-labels "><text x="32" style="color:#000000;cursor:default;font-size:0.9em;fill:#000000;" text-anchor="end" transform="translate(0,0)" y="349" opacity="1"><tspan>0%</tspan></text><text x="32" style="color:#000000;cursor:default;font-size:0.9em;fill:#000000;" text-anchor="end" transform="translate(0,0)" y="298" opacity="1"><tspan>10%</tspan></text><text x="32" style="color:#000000;cursor:default;font-size:0.9em;fill:#000000;" text-anchor="end" transform="translate(0,0)" y="247" opacity="1"><tspan>20%</tspan></text><text x="32" style="color:#000000;cursor:default;font-size:0.9em;fill:#000000;" text-anchor="end" transform="translate(0,0)" y="196" opacity="1"><tspan>30%</tspan></text><text x="32" style="color:#000000;cursor:default;font-size:0.9em;fill:#000000;" text-anchor="end" transform="translate(0,0)" y="145" opacity="1"><tspan>40%</tspan></text><text x="32" style="color:#000000;cursor:default;font-size:0.9em;fill:#000000;" text-anchor="end" transform="translate(0,0)" y="95" opacity="1"><tspan>50%</tspan></text></g><g class="highcharts-axis-labels highcharts-yaxis-labels "></g><text x="10" class="highcharts-credits" text-anchor="start" style="cursor:default;color:#000000;font-size:0.8em;fill:#000000;" y="400"><tspan>Quelle: Amt für Umwelt und Energie Basel-Stadt; Amt für Umweltschutz und Energie Basel-Landschaft</tspan></text></svg>

<svg class="highcharts-root" xmlns="http://www.w3.org/2000/svg" viewBox="0 0 485 415" font-family="Arial" font-size="12">
    <defs>
        <clipPath id="a">
            <path fill="none" d="M0 0h428v254H0z"/>
        </clipPath>
    </defs>
    <rect fill="#fbfbfb" class="highcharts-background" width="485" height="415" rx="0" ry="0"/>
    <path fill="none" class="highcharts-plot-background" d="M47 90h428v254H47z"/>
    <text transform="translate(10 451)" class="highcharts-label" cursor="pointer">
        <tspan>&gt; Indikator-Details</tspan>
    </text>
    <g class="highcharts-grid highcharts-xaxis-grid">
        <path fill="none" class="highcharts-grid-line" d="M79.5 90v254m0-254v254m33-254v254m0-254v254m33-254v254m0-254v254m33-254v254m0-254v254m33-254v254m0-254v254m33-254v254m0-254v254m32-254v254m0-254v254m33-254v254m0-254v254m33-254v254m0-254v254m33-254v254m0-254v254m33-254v254m0-254v254m33-254v254m0-254v254m33-254v254m0-254v254M46.5 90v254m0-254v254"/>
    </g>
    <g class="highcharts-grid highcharts-yaxis-grid">
        <path fill="none" stroke="#e6e6e6" class="highcharts-grid-line" d="M47 344.5h428m-428-51h428m-428-51h428m-428-50h428m-428-51h428m-428-52h428"/>
    </g>
    <path fill="none" class="highcharts-plot-border" d="M47 90h428v254H47z"/>
    <g class="highcharts-axis highcharts-xaxis">
        <path fill="none" class="highcharts-axis-line" stroke="#ccd6eb" d="M47 344.5h428"/>
    </g>
    <g class="highcharts-axis highcharts-yaxis">
        <path fill="none" class="highcharts-axis-line" d="M47 90v254"/>
    </g>
    <g class="highcharts-axis highcharts-yaxis">
        <path fill="none" class="highcharts-axis-line" d="M475 90v254"/>
    </g>
    <g class="highcharts-series-group">
        <g class="highcharts-series highcharts-series-0 highcharts-column-series highcharts-color-undefined highcharts-tracker" transform="translate(47 90)" clip-path="url(#a)">
            <path fill="#FF8028" class="highcharts-point" d="M9 49h16v206H9zm32-1h16v207H41zm33-7h16v214H74zm33-2h16v216h-16zm33 0h16v216h-16zm33-14h16v230h-16zm33 17h16v213h-16zm33-5h16v218h-16zm33-5h16v223h-16zm33-4h16v227h-16zm33 3h16v224h-16zm33 3h16v221h-16zm33-3h16v224h-16z"/>
        </g>
    </g>
    <text x="10" class="highcharts-title" y="20" color="#000" font-size="1.1em" font-weight="700">
        <tspan>Recyclingquote</tspan>
    </text>
    <text x="10" class="highcharts-subtitle" y="38" color="#000" font-size=".9em">
        <tspan>Prozent</tspan>
    </text>
    <g class="highcharts-legend" transform="translate(10 40)">
        <rect fill="none" class="highcharts-legend-box" rx="0" ry="0" width="148" height="38"/>
        <g class="highcharts-legend-item highcharts-column-series highcharts-color-undefined highcharts-series-0">
            <text x="21" y="15" color="#333" font-size="1em" font-weight="400" cursor="pointer" fill="#333" transform="translate(12 7)">
                <tspan>Kanton Basel-Stadt</tspan>
            </text>
            <path fill="#FF8028" class="highcharts-point" d="M14 11h12v12H14z"/>
        </g>
    </g>
    <g class="highcharts-axis-labels highcharts-xaxis-labels" text-anchor="middle" color="#000" cursor="default" font-size=".9em">
        <text x="63.462" y="363">
            2003
        </text>
        <text x="96.385" y="363">
            2004
        </text>
        <text x="129.308" y="363">
            2005
        </text>
        <text x="162.231" y="363">
            2006
        </text>
        <text x="195.154" y="363">
            2007
        </text>
        <text x="228.077" y="363">
            2008
        </text>
        <text x="261" y="363">
            2009
        </text>
        <text x="293.923" y="363">
            2010
        </text>
        <text x="326.846" y="363">
            2011
        </text>
        <text x="359.769" y="363">
            2012
        </text>
        <text x="392.692" y="363">
            2013
        </text>
        <text x="425.615" y="363">
            2014
        </text>
        <text x="458.538" y="363">
            2015
        </text>
    </g>
    <g class="highcharts-axis-labels highcharts-yaxis-labels" text-anchor="end" color="#000" cursor="default" font-size=".9em">
        <text x="32" y="349">
            <tspan>0%</tspan>
        </text>
        <text x="32" y="298">
            <tspan>10%</tspan>
        </text>
        <text x="32" y="247">
            <tspan>20%</tspan>
        </text>
        <text x="32" y="196">
            <tspan>30%</tspan>
        </text>
        <text x="32" y="145">
            <tspan>40%</tspan>
        </text>
        <text x="32" y="95">
            <tspan>50%</tspan>
        </text>
    </g>
    <text x="10" class="highcharts-credits" y="400" cursor="default" color="#000" font-size=".8em">
        <tspan>Quelle: Amt für Umwelt und Energie Basel-Stadt; Amt für Umweltschutz und Energie Basel-Landschaft</tspan>
    </text>
</svg>
